teeny/solid/lock-small.svg

<svg width="15" height="15" viewBox="0 0 15 15" fill="none" xmlns="http://www.w3.org/2000/svg">
<path fill-rule="evenodd" clip-rule="evenodd" d="M10 5.5V6.08535C10.5826 6.29127 11 6.84689 11 7.5V10.5C11 11.3284 10.3284 12 9.5 12H5.5C4.67157 12 4 11.3284 4 10.5V7.5C4 6.84689 4.4174 6.29127 5 6.08535V5.5C5 4.11929 6.11929 3 7.5 3C8.88071 3 10 4.11929 10 5.5ZM6 5.5C6 4.67157 6.67157 4 7.5 4C8.32843 4 9 4.67157 9 5.5V6H6V5.5Z" fill="black"/>
</svg>

<svg viewBox="0 0 15 15" xmlns="http://www.w3.org/2000/svg"><path fill-rule="evenodd" d="M10 5.5v.58c.58.2 1 .76 1 1.41v3c0 .82-.68 1.5-1.5 1.5h-4c-.83 0-1.5-.68-1.5-1.5v-3c0-.66.41-1.21 1-1.42v-.59c0-1.39 1.11-2.5 2.5-2.5 1.38 0 2.5 1.11 2.5 2.5Zm-4 0C6 4.67 6.67 4 7.5 4 8.32 4 9 4.67 9 5.5V6H6v-.5Z"/></svg>
